X:1851
T:The Luaithreadn's Jig
D:Kevin Crehan, An Bhbg sa Bhdg 5b
C:Junior Crehan
Z:JSC-from-IL
M:6/8
K:G
g | edB dBA | ~G3 AGE | DD/E/G AGA | BAA A2 g |
    edB dBA | ~G3 AGE | DD/E/G AGA | BGF G2 ::
D | GBd gfg | aga age | gab age | deg a2 a |
    age edB | ~G3 AGE | DEG AGA | BGG G2 :|**
